;Sliced by ideaMaker 5.0.6.8380, 2024-07-17 09:49:30 UTC-0300
;Slicer Version: 5.0.6.8380
;Dimension: 305.000 305.000 605.000 0.400 0.400
;Plate Shape: 0
;Origin Center: 0
;Extruder Offset #1: 0.000 0.000
;Filament Diameter #1: 1.750
;Filament Diameter #2: 1.750
;Filament Compensation #1: 90.00
;Filament Compensation #2: 90.00
;Filament Density #1: 1240.00
;Filament Density #2: 1240.00
;Filament Type #1: PLA
;Filament Type #2: PLA
;Filament Name #1: [Raise3D] Premium PLA 1.75mm
;Filament Name #2: [Raise3D] Premium PLA 1.75mm
;Firmware: Raise3D Pro2
;Bounding Box: 132.847 170.678 113.211 191.037 0.000 16.920
;Model Gap: 0.150
M221 T0 S90.00
M140 S60.00
M104 T0 S205.00
M109 T0 S205.00
T0
M190 S60.00
G21
G90
M82
M107
G28 X0 Y0
G28 Z0
G1 Z15.0 F300
G92 E0
G1 F140 E29
G1 X20 Y0 F140 E30
G92 E0
G1 F6000.0
M117 Printing...
M1001
;TOTAL_NUM: 1
;PRINTING_TIME: 0
;REMAINING_TIME: 3608
M106 S0
;LAYER:-2
;Z:0.500
;HEIGHT:0.500
;PRINTING: NON-OBJECT
;PRINTING_ID: -1
G0 F6000 X134.326 Y123.260
G0 F300 Z0.500
;TYPE:RAFT
;WIDTH:0.800
G1 F480 X134.670 Y122.891 E0.0839
G1 X135.068 Y122.552 E0.1708
G1 X135.504 Y122.260 E0.2581
G1 X136.442 Y121.757 E0.4351
G1 X136.838 Y121.449 E0.5185
G1 X137.181 Y121.091 E0.6010
G1 X137.469 Y120.686 E0.6836
G1 X137.750 Y120.131 E0.7871
G1 X138.016 Y119.675 E0.8749
G1 X138.331 Y119.254 E0.9623
G1 X138.571 Y118.988 E1.0219
G1 X138.958 Y118.637 E1.1088
G1 X139.379 Y118.336 E1.1949
G1 X140.440 Y117.757 E1.3959
G1 X140.834 Y117.450 E1.4789
G1 X141.179 Y117.093 E1.5615
G1 X141.465 Y116.690 E1.6437
G1 X141.936 Y115.801 E1.8110
G1 X142.335 Y115.249 E1.9242
G1 X142.686 Y114.876 E2.0094
G1 X142.953 Y114.641 E2.0686
G1 X143.374 Y114.339 E2.1547
G1 X143.846 Y114.075 E2.2447
G1 X144.316 Y113.878 E2.3294
G1 X144.809 Y113.735 E2.4148
G1 X145.317 Y113.647 E2.5005
G1 X145.901 Y113.611 E2.5978
G1 X157.621 Y113.612 E4.5469
G1 X158.115 Y113.637 E4.6291
G1 X158.629 Y113.717 E4.7156
G1 X159.276 Y113.904 E4.8276
G1 X159.773 Y114.124 E4.9180
G1 X160.060 Y114.285 E4.9728
G1 X160.626 Y114.690 E5.0885
G1 X160.995 Y115.034 E5.1724
G1 X161.334 Y115.432 E5.2593
G1 X161.626 Y115.868 E5.3466
G1 X162.129 Y116.806 E5.5236
G1 X162.437 Y117.202 E5.6070
G1 X162.795 Y117.545 E5.6895
G1 X163.199 Y117.833 E5.7720
G1 X163.745 Y118.109 E5.8737
G1 X164.207 Y118.377 E5.9626
G1 X164.626 Y118.690 E6.0495
G1 X164.999 Y119.038 E6.1344
G1 X165.350 Y119.452 E6.2246
G1 X165.544 Y119.731 E6.2811
G1 X166.123 Y120.794 E6.4824
G1 X166.427 Y121.189 E6.5653
G1 X166.782 Y121.535 E6.6478
G1 X167.188 Y121.826 E6.7308
G1 X167.751 Y122.112 E6.8359
G1 X168.206 Y122.376 E6.9233
G1 X168.625 Y122.689 E7.0103
G1 X168.999 Y123.038 E7.0954
G1 X169.342 Y123.443 E7.1836
G1 X169.633 Y123.876 E7.2704
G1 X169.872 Y124.340 E7.3572
G1 X169.999 Y124.657 E7.4140
G1 X170.185 Y125.334 E7.5307
G1 X170.257 Y125.847 E7.6169
G1 X170.275 Y126.272 E7.6876
G1 X170.278 Y146.060 E10.9784
G1 X170.255 Y146.451 E11.0435
G1 X170.199 Y146.860 E11.1122
G1 X170.074 Y147.364 E11.1985
G1 X169.830 Y148.000 E11.3118
G1 X169.587 Y148.449 E11.3967
G1 X169.284 Y148.883 E11.4847
G1 X169.049 Y149.159 E11.5450
G1 X168.669 Y149.524 E11.6327
G1 X168.253 Y149.844 E11.7199
G1 X167.568 Y150.289 E11.8558
G1 X167.199 Y150.627 E11.9390
G1 X166.887 Y151.013 E12.0215
G1 X166.633 Y151.440 E12.1042
G1 X166.445 Y151.900 E12.1868
G1 X166.325 Y152.384 E12.2697
G1 X166.278 Y152.938 E12.3622
G1 X166.274 Y165.975 E14.5302
G1 X166.231 Y166.633 E14.6399
G1 X166.169 Y166.996 E14.7011
G1 X166.031 Y167.498 E14.7877
G1 X165.843 Y167.972 E14.8725
G1 X165.596 Y168.433 E14.9595
G1 X165.192 Y168.994 E15.0745
G1 X164.845 Y169.366 E15.1591
G1 X164.569 Y169.609 E15.2202
G1 X164.143 Y169.916 E15.3076
G1 X163.637 Y170.239 E15.4074
G1 X163.262 Y170.565 E15.4900
G1 X162.939 Y170.942 E15.5726
G1 X162.675 Y171.363 E15.6552
G1 X162.474 Y171.816 E15.7376
G1 X162.341 Y172.301 E15.8213
G1 X162.278 Y172.938 E15.9277
G1 X162.274 Y185.986 E18.0976
G1 X162.248 Y186.484 E18.1805
G1 X162.169 Y186.997 E18.2669
G1 X161.975 Y187.656 E18.3811
G1 X161.770 Y188.121 E18.4656
G1 X161.510 Y188.569 E18.5517
G1 X161.196 Y188.990 E18.6391
G1 X160.851 Y189.360 E18.7232
G1 X160.453 Y189.699 E18.8102
G1 X160.018 Y189.991 E18.8973
G1 X159.553 Y190.234 E18.9845
G1 X159.225 Y190.365 E19.0433
G1 X158.558 Y190.548 E19.1583
G1 X158.202 Y190.604 E19.2182
G1 X157.707 Y190.637 E19.3007
G1 X153.801 Y190.635 E19.9503
G1 X153.251 Y190.595 E20.0420
G1 X152.734 Y190.496 E20.1296
G1 X152.229 Y190.339 E20.2175
G1 X151.765 Y190.135 E20.3018
G1 X151.317 Y189.875 E20.3879
G1 X150.908 Y189.572 E20.4726
G1 X150.519 Y189.210 E20.5609
G1 X150.276 Y188.933 E20.6222
G1 X149.968 Y188.505 E20.7099
G1 X149.717 Y188.055 E20.7956
G1 X149.467 Y187.431 E20.9074
G1 X149.338 Y186.931 E20.9933
G1 X149.280 Y186.561 E21.0556
G1 X149.211 Y185.544 E21.2251
G1 X149.103 Y185.058 E21.3079
G1 X148.925 Y184.595 E21.3904
G1 X148.683 Y184.162 E21.4728
G1 X148.380 Y183.768 E21.5555
G1 X148.021 Y183.423 E21.6383
G1 X147.618 Y183.136 E21.7206
G1 X147.177 Y182.908 E21.8031
G1 X146.708 Y182.748 E21.8856
G1 X146.225 Y182.658 E21.9673
G1 X145.249 Y182.595 E22.1299
G1 X144.750 Y182.501 E22.2143
G1 X144.226 Y182.338 E22.3056
G1 X143.911 Y182.206 E22.3624
G1 X143.445 Y181.956 E22.4503
G1 X143.027 Y181.665 E22.5350
G1 X142.623 Y181.313 E22.6242
G1 X142.186 Y180.815 E22.7343
G1 X141.892 Y180.379 E22.8218
G1 X141.717 Y180.053 E22.8833
G1 X141.464 Y179.419 E22.9968
G1 X141.372 Y179.087 E23.0541
G1 X141.282 Y178.566 E23.1421
G1 X141.247 Y177.994 E23.2374
G1 X141.243 Y164.943 E25.4078
G1 X141.208 Y164.463 E25.4878
G1 X141.100 Y163.978 E25.5704
G1 X140.922 Y163.515 E25.6529
G1 X140.679 Y163.082 E25.7355
G1 X140.376 Y162.689 E25.8180
G1 X140.015 Y162.341 E25.9014
G1 X139.118 Y161.735 E26.0814
G1 X138.722 Y161.407 E26.1669
G1 X138.362 Y161.033 E26.2533
G1 X138.050 Y160.627 E26.3384
G1 X137.780 Y160.178 E26.4255
G1 X137.577 Y159.733 E26.5069
G1 X137.330 Y158.900 E26.6514
G1 X137.266 Y158.450 E26.7270
G1 X137.241 Y157.981 E26.8051
G1 X137.241 Y144.939 E28.9740
G1 X137.206 Y144.459 E29.0540
G1 X137.098 Y143.974 E29.1366
G1 X136.920 Y143.511 E29.2191
G1 X136.678 Y143.078 E29.3016
G1 X136.375 Y142.684 E29.3843
G1 X136.011 Y142.335 E29.4681
G1 X135.333 Y141.885 E29.6035
G1 X134.895 Y141.559 E29.6943
G1 X134.525 Y141.214 E29.7784
G1 X134.184 Y140.813 E29.8659
G1 X133.977 Y140.518 E29.9259
G1 X133.725 Y140.070 E30.0113
G1 X133.516 Y139.573 E30.1010
G1 X133.371 Y139.082 E30.1861
G1 X133.282 Y138.566 E30.2732
G1 X133.247 Y137.997 E30.3680
G1 X133.252 Y126.160 E32.3365
G1 X133.292 Y125.610 E32.4282
G1 X133.352 Y125.260 E32.4873
G1 X133.540 Y124.610 E32.5998
G1 X133.763 Y124.108 E32.6912
G1 X133.921 Y123.825 E32.7451
G1 X134.326 Y123.260 E32.8607
G0 F6000 X134.532 Y123.590
G1 F480 X134.532 Y140.667 E35.7006
G0 F6000 X136.956 Y142.848
G1 F480 X136.956 Y121.813 E39.1987
G0 F6000 X139.380 Y118.777
G1 F480 X139.380 Y161.478 E46.2999
G0 F6000 X141.804 Y179.299
G1 F480 X141.804 Y116.818 E56.6906
G0 F6000 X144.228 Y114.305
G1 F480 X144.228 Y181.948 E67.9396
G0 F6000 X146.652 Y182.370
G1 F480 X146.652 Y113.972 E79.3143
G0 F6000 X149.076 Y113.972
G1 F480 X149.076 Y184.126 E90.9809
G0 F6000 X151.500 Y189.562
G1 F480 X151.500 Y113.972 E103.5516
G0 F6000 X153.924 Y113.972
G1 F480 X153.924 Y190.275 E116.2408
G0 F6000 X156.348 Y190.276
G1 F480 X156.348 Y113.972 E128.9302
G0 F6000 X158.772 Y114.133
G1 F480 X158.772 Y190.116 E141.5663
G0 F6000 X161.196 Y188.388
G1 F480 X161.196 Y115.874 E153.6254
G0 F6000 X163.620 Y118.454
G1 F480 X163.620 Y169.824 E162.1683
G0 F6000 X166.044 Y152.024
G1 F480 X166.044 Y121.283 E167.2805
G0 F6000 X168.468 Y123.034
G1 F480 X168.468 Y149.219 E171.6351
;PRINTING_TIME: 133
;REMAINING_TIME: 3475
M106 S255
;LAYER:-2
;Z:1.000
;HEIGHT:0.500
;PRINTING: NON-OBJECT
;PRINTING_ID: -1
G0 F300 Z1.000
G0 F6000 X168.669 Y149.524
;TYPE:RAFT
;WIDTH:0.800
G1 F960 X168.253 Y149.844 E171.7224
G1 X167.568 Y150.289 E171.8582
G1 X167.199 Y150.627 E171.9414
G1 X166.887 Y151.013 E172.0240
G1 X166.633 Y151.440 E172.1066
G1 X166.445 Y151.900 E172.1892
G1 X166.325 Y152.384 E172.2722
G1 X166.278 Y152.938 E172.3646
G1 X166.274 Y165.975 E174.5327
G1 X166.231 Y166.633 E174.6423
G1 X166.169 Y166.996 E174.7036
G1 X166.031 Y167.498 E174.7902
G1 X165.843 Y167.972 E174.8750
G1 X165.596 Y168.433 E174.9619
G1 X165.192 Y168.994 E175.0769
G1 X164.845 Y169.366 E175.1615
G1 X164.569 Y169.609 E175.2227
G1 X164.143 Y169.916 E175.3100
G1 X163.637 Y170.239 E175.4098
G1 X163.262 Y170.565 E175.4925
G1 X162.939 Y170.942 E175.5750
G1 X162.675 Y171.363 E175.6577
G1 X162.474 Y171.816 E175.7401
G1 X162.341 Y172.301 E175.8237
G1 X162.278 Y172.938 E175.9302
G1 X162.274 Y185.986 E178.1000
G1 X162.248 Y186.484 E178.1830
G1 X162.169 Y186.997 E178.2693
G1 X161.975 Y187.656 E178.3835
G1 X161.770 Y188.121 E178.4680
G1 X161.510 Y188.569 E178.5542
G1 X161.196 Y188.990 E178.6415
G1 X160.851 Y189.360 E178.7257
G1 X160.453 Y189.699 E178.8126
G1 X160.018 Y189.991 E178.8997
G1 X159.553 Y190.234 E178.9870
G1 X159.225 Y190.365 E179.0457
G1 X158.558 Y190.548 E179.1607
G1 X158.202 Y190.604 E179.2207
G1 X157.707 Y190.637 E179.3032
G1 X153.801 Y190.635 E179.9527
G1 X153.251 Y190.595 E180.0444
G1 X152.734 Y190.496 E180.1320
G1 X152.229 Y190.339 E180.2199
G1 X151.765 Y190.135 E180.3042
G1 X151.317 Y189.875 E180.3904
G1 X150.908 Y189.572 E180.4750
G1 X150.519 Y189.210 E180.5634
G1 X150.276 Y188.933 E180.6247
G1 X149.968 Y188.505 E180.7124
G1 X149.717 Y188.055 E180.7980
G1 X149.467 Y187.431 E180.9098
G1 X149.338 Y186.931 E180.9957
G1 X149.280 Y186.561 E181.0580
G1 X149.211 Y185.544 E181.2275
G1 X149.103 Y185.058 E181.3103
G1 X148.925 Y184.595 E181.3928
G1 X148.683 Y184.162 E181.4753
G1 X148.380 Y183.768 E181.5579
G1 X148.021 Y183.423 E181.6407
G1 X147.618 Y183.136 E181.7230
G1 X147.177 Y182.908 E181.8056
G1 X146.708 Y182.748 E181.8880
G1 X146.225 Y182.658 E181.9697
G1 X145.249 Y182.595 E182.1323
G1 X144.750 Y182.501 E182.2168
G1 X144.226 Y182.338 E182.3080
G1 X143.911 Y182.206 E182.3648
G1 X143.445 Y181.956 E182.4528
G1 X143.027 Y181.665 E182.5375
G1 X142.623 Y181.313 E182.6266
G1 X142.186 Y180.815 E182.7368
G1 X141.892 Y180.379 E182.8242
G1 X141.717 Y180.053 E182.8858
G1 X141.464 Y179.419 E182.9993
G1 X141.372 Y179.087 E183.0566
G1 X141.282 Y178.566 E183.1445
G1 X141.247 Y177.994 E183.2398
G1 X141.243 Y164.943 E185.4102
G1 X141.208 Y164.463 E185.4902
G1 X141.100 Y163.978 E185.5729
G1 X140.922 Y163.515 E185.6553
G1 X140.679 Y163.082 E185.7379
G1 X140.376 Y162.689 E185.8204
G1 X140.015 Y162.341 E185.9038
G1 X139.118 Y161.735 E186.0839
G1 X138.722 Y161.407 E186.1694
G1 X138.362 Y161.033 E186.2557
G1 X138.050 Y160.627 E186.3409
G1 X137.780 Y160.178 E186.4280
G1 X137.577 Y159.733 E186.5093
G1 X137.330 Y158.900 E186.6538
G1 X137.266 Y158.450 E186.7294
G1 X137.241 Y157.981 E186.8075
G1 X137.241 Y144.939 E188.9764
G1 X137.206 Y144.459 E189.0564
G1 X137.098 Y143.974 E189.1391
G1 X136.920 Y143.511 E189.2216
G1 X136.678 Y143.078 E189.3040
G1 X136.375 Y142.684 E189.3867
G1 X136.011 Y142.335 E189.4706
G1 X135.333 Y141.885 E189.6059
G1 X134.895 Y141.559 E189.6967
G1 X134.525 Y141.214 E189.7808
G1 X134.184 Y140.813 E189.8684
G1 X133.977 Y140.518 E189.9283
G1 X133.725 Y140.070 E190.0138
G1 X133.516 Y139.573 E190.1034
G1 X133.371 Y139.082 E190.1886
G1 X133.282 Y138.566 E190.2757
G1 X133.247 Y137.997 E190.3705
G1 X133.252 Y126.160 E192.3390
G1 X133.292 Y125.610 E192.4307
G1 X133.352 Y125.260 E192.4897
G1 X133.540 Y124.610 E192.6022
G1 X133.763 Y124.108 E192.6936
G1 X133.921 Y123.825 E192.7475
G1 X134.326 Y123.260 E192.8631
G1 X134.670 Y122.891 E192.9470
G1 X135.068 Y122.552 E193.0339
G1 X135.504 Y122.260 E193.1212
G1 X136.442 Y121.757 E193.2982
G1 X136.838 Y121.449 E193.3816
G1 X137.181 Y121.091 E193.4641
G1 X137.469 Y120.686 E193.5467
G1 X137.750 Y120.131 E193.6502
G1 X138.016 Y119.675 E193.7380
G1 X138.331 Y119.254 E193.8254
G1 X138.571 Y118.988 E193.8850
G1 X138.958 Y118.637 E193.9719
G1 X139.379 Y118.336 E194.0580
G1 X140.440 Y117.757 E194.2590
G1 X140.834 Y117.450 E194.3420
G1 X141.179 Y117.093 E194.4246
G1 X141.465 Y116.690 E194.5068
G1 X141.936 Y115.801 E194.6741
G1 X142.335 Y115.249 E194.7873
G1 X142.686 Y114.876 E194.8725
G1 X142.953 Y114.641 E194.9317
G1 X143.374 Y114.339 E195.0178
G1 X143.846 Y114.075 E195.1078
G1 X144.316 Y113.878 E195.1925
G1 X144.809 Y113.735 E195.2779
G1 X145.317 Y113.647 E195.3636
G1 X145.901 Y113.611 E195.4609
G1 X157.621 Y113.612 E197.4100
G1 X158.115 Y113.637 E197.4922
G1 X158.629 Y113.717 E197.5787
G1 X159.276 Y113.904 E197.6907
G1 X159.773 Y114.124 E197.7811
G1 X160.060 Y114.285 E197.8359
G1 X160.626 Y114.690 E197.9516
G1 X160.995 Y115.034 E198.0355
G1 X161.334 Y115.432 E198.1224
G1 X161.626 Y115.868 E198.2097
G1 X162.129 Y116.806 E198.3867
G1 X162.437 Y117.202 E198.4701
G1 X162.795 Y117.545 E198.5526
G1 X163.199 Y117.833 E198.6351
G1 X163.745 Y118.109 E198.7368
G1 X164.207 Y118.377 E198.8257
G1 X164.626 Y118.690 E198.9126
G1 X164.999 Y119.038 E198.9975
G1 X165.350 Y119.452 E199.0877
G1 X165.544 Y119.731 E199.1442
G1 X166.123 Y120.794 E199.3455
G1 X166.427 Y121.189 E199.4284
G1 X166.782 Y121.535 E199.5109
G1 X167.188 Y121.826 E199.5939
G1 X167.751 Y122.112 E199.6990
G1 X168.206 Y122.376 E199.7864
G1 X168.625 Y122.689 E199.8734
G1 X168.999 Y123.038 E199.9585
G1 X169.342 Y123.443 E200.0467
G1 X169.633 Y123.876 E200.1335
G1 X169.872 Y124.340 E200.2203
G1 X169.999 Y124.657 E200.2771
G1 X170.185 Y125.334 E200.3938
G1 X170.257 Y125.847 E200.4800
G1 X170.275 Y126.272 E200.5507
G1 X170.278 Y146.060 E203.8415
G1 X170.255 Y146.451 E203.9066
G1 X170.199 Y146.860 E203.9753
G1 X170.074 Y147.364 E204.0616
G1 X169.830 Y148.000 E204.1749
G1 X169.587 Y148.449 E204.2598
G1 X169.284 Y148.883 E204.3479
G1 X169.049 Y149.159 E204.4081
G1 X168.669 Y149.524 E204.4958
G0 F6000 X168.468 Y149.219
G1 F960 X168.468 Y123.034 E208.8503
G0 F6000 X166.044 Y121.283
G1 F960 X166.044 Y152.024 E213.9626
G0 F6000 X163.620 Y169.824
G1 F960 X163.620 Y118.454 E222.5055
G0 F6000 X161.196 Y115.874
G1 F960 X161.196 Y188.388 E234.5646
G0 F6000 X158.772 Y190.116
G1 F960 X158.772 Y114.133 E247.2006
G0 F6000 X156.348 Y113.972
G1 F960 X156.348 Y190.276 E259.8900
G0 F6000 X153.924 Y190.275
G1 F960 X153.924 Y113.972 E272.5793
G0 F6000 X151.500 Y113.972
G1 F960 X151.500 Y189.562 E285.1499
G0 F6000 X149.076 Y184.126
G1 F960 X149.076 Y113.972 E296.8166
G0 F6000 X146.652 Y113.972
G1 F960 X146.652 Y182.370 E308.1912
G0 F6000 X144.228 Y181.948
G1 F960 X144.228 Y114.305 E319.4403
G0 F6000 X141.804 Y116.818
G1 F960 X141.804 Y179.299 E329.8309
G0 F6000 X139.380 Y161.478
G1 F960 X139.380 Y118.777 E336.9321
G0 F6000 X136.956 Y121.813
G1 F960 X136.956 Y142.848 E340.4303
G0 F6000 X134.532 Y140.667
G1 F960 X134.532 Y123.590 E343.2702
;PRINTING_TIME: 200
;REMAINING_TIME: 3408
;LAYER:-1
;Z:1.380
;HEIGHT:0.380
;PRINTING: NON-OBJECT
;PRINTING_ID: -1
G0 F300 Z1.380
G0 F6000 X143.474 Y114.600
;TYPE:RAFT
;WIDTH:0.600
G1 F1800 X160.037 Y114.600 E344.8402
G0 F6000 X161.256 Y115.800
G1 F1800 X142.269 Y115.800 E346.6400
G0 F6000 X141.577 Y117.000
G1 F1800 X161.940 Y117.000 E348.5702
G0 F6000 X163.329 Y118.200
G1 F1800 X140.191 Y118.200 E350.7635
G0 F6000 X138.564 Y119.400
G1 F1800 X164.954 Y119.400 E353.2651
G0 F6000 X165.711 Y120.600
G1 F1800 X137.816 Y120.600 E355.9093
G0 F6000 X136.824 Y121.800
G1 F1800 X166.689 Y121.800 E358.7402
G0 F6000 X168.564 Y123.000
G1 F1800 X134.957 Y123.000 E361.9259
G0 F6000 X134.021 Y124.200
G1 F1800 X169.497 Y124.200 E365.2887
G0 F6000 X169.922 Y125.400
G1 F1800 X133.603 Y125.400 E368.7314
G0 F6000 X133.522 Y126.600
G1 F1800 X170.006 Y126.600 E372.1898
G0 F6000 X170.006 Y127.800
G1 F1800 X133.522 Y127.800 E375.6482
G0 F6000 X133.521 Y129.000
G1 F1800 X170.006 Y129.000 E379.1066
G0 F6000 X170.006 Y130.200
G1 F1800 X133.521 Y130.200 E382.5651
G0 F6000 X133.520 Y131.400
G1 F1800 X170.006 Y131.400 E386.0237
G0 F6000 X170.006 Y132.600
G1 F1800 X133.520 Y132.600 E389.4822
G0 F6000 X133.519 Y133.800
G1 F1800 X170.007 Y133.800 E392.9410
G0 F6000 X170.007 Y135.000
G1 F1800 X133.519 Y135.000 E396.3997
G0 F6000 X133.518 Y136.200
G1 F1800 X170.007 Y136.200 E399.8585
G0 F6000 X170.007 Y137.400
